X: 48
T: The BRAES OF BUSBIE
%R: strathspey
B: Jean White "100 Popular Hornpipes, Reels, Jigs and Country Dances", Boston 1880 p.21
F: http://www.loc.gov/resource/sm1880.09124.0#seq-1
Z: 2014 John Chambers <jc:trillian.mit.edu>
M: C|
L: 1/16
K: Gm
% - - - - - - - - - - - - - - - - - - - - - - - - - - - - -
G2 |\
D3GG3A B3AG3F | C3FF3G A3c BAGF |\
G3AB3c d3cB3d | cBAG F3A B3GG3A |
B3cd3B f3Bd3B | A3cf3d c3AF3A |\
B3cd3B f3Bd3B | c3AF3A BG3G2 :|
|: d2 |\
g4 d3g d3gb3g | f4c3f c3fa3f |\
g4d3g d3cB3d | c3AF3A BG3G3A |
B3dG3B G3Bd3B | A3cF3A F3Ac3A |\
G3Bd3g f3dB3d | c3AF3A BG3G2 H:|
% - - - - - - - - - - - - - - - - - - - - - - - - - - - - -

%%sep 1 1 500
%%sep 1 1 500
